public/assets/vectors/gitlab.svg

<?xml version="1.0" encoding="UTF-8" standalone="no"?>
<svg
   xmlns:dc="http://purl.org/dc/elements/1.1/"
   xmlns:cc="http://creativecommons.org/ns#"
   xmlns:rdf="http://www.w3.org/1999/02/22-rdf-syntax-ns#"
   xmlns:svg="http://www.w3.org/2000/svg"
   xmlns="http://www.w3.org/2000/svg"
   xmlns:sodipodi="http://sodipodi.sourceforge.net/DTD/sodipodi-0.dtd"
   xmlns:inkscape="http://www.inkscape.org/namespaces/inkscape"
   width="100pt"
   height="100pt"
   viewBox="0 0 100 100"
   version="1.1"
   id="svg17"
   sodipodi:docname="gitlab.svg"
   inkscape:version="0.92.4 (5da689c313, 2019-01-14)">
  <metadata
     id="metadata23">
    <rdf:RDF>
      <cc:Work
         rdf:about="">
        <dc:format>image/svg+xml</dc:format>
        <dc:type
           rdf:resource="http://purl.org/dc/dcmitype/StillImage" />
        <dc:title></dc:title>
      </cc:Work>
    </rdf:RDF>
  </metadata>
  <defs
     id="defs21" />
  <sodipodi:namedview
     pagecolor="#ffffff"
     bordercolor="#666666"
     borderopacity="1"
     objecttolerance="10"
     gridtolerance="10"
     guidetolerance="10"
     inkscape:pageopacity="0"
     inkscape:pageshadow="2"
     inkscape:window-width="1600"
     inkscape:window-height="877"
     id="namedview19"
     showgrid="false"
     inkscape:document-units="pt"
     inkscape:zoom="2.2125"
     inkscape:cx="53.333333"
     inkscape:cy="38.101805"
     inkscape:window-x="-8"
     inkscape:window-y="90"
     inkscape:window-maximized="1"
     inkscape:current-layer="svg17" />
  <g
     id="surface176929"
     transform="matrix(1.1428571,0,0,1.1428571,4.285716,4.285716)">
    <path
       style="fill:#e33833;fill-opacity:1;fill-rule:nonzero;stroke:none"
       d="M 40,71.667969 26.667969,33.332031 h 26.664062 z m 0,0"
       id="path2"
       inkscape:connector-curvature="0" />
    <path
       style="fill:#ff6e42;fill-opacity:1;fill-rule:nonzero;stroke:none"
       d="M 40,71.667969 70,33.332031 H 53.332031 Z m 0,0"
       id="path4"
       inkscape:connector-curvature="0" />
    <path
       style="fill:#e33833;fill-opacity:1;fill-rule:nonzero;stroke:none"
       d="m 61.667969,8.332031 8.332031,25 H 53.332031 Z m 0,0"
       id="path6"
       inkscape:connector-curvature="0" />
    <path
       style="fill:#ffa623;fill-opacity:1;fill-rule:nonzero;stroke:none"
       d="m 40,71.667969 30,-38.335938 5,13.335938 z m 0,0"
       id="path8"
       inkscape:connector-curvature="0" />
    <path
       style="fill:#ff6e42;fill-opacity:1;fill-rule:nonzero;stroke:none"
       d="M 40,71.667969 10,33.332031 h 16.667969 z m 0,0"
       id="path10"
       inkscape:connector-curvature="0" />
    <path
       style="fill:#e33833;fill-opacity:1;fill-rule:nonzero;stroke:none"
       d="m 18.332031,8.332031 -8.332031,25 h 16.667969 z m 0,0"
       id="path12"
       inkscape:connector-curvature="0" />
    <path
       style="fill:#ffa623;fill-opacity:1;fill-rule:nonzero;stroke:none"
       d="M 40,71.667969 10,33.332031 5,46.667969 Z m 0,0"
       id="path14"
       inkscape:connector-curvature="0" />
  </g>
</svg>

<?xml version="1.0" encoding="UTF-8"?>
<svg xmlns="http://www.w3.org/2000/svg" xmlns:xlink="http://www.w3.org/1999/xlink" width="80pt" height="80pt" viewBox="0 0 80 80" version="1.1">
<g id="surface176929">
<path style=" stroke:none;fill-rule:nonzero;fill:rgb(89.803922%,22.352941%,20.784314%);fill-opacity:1;" d="M 40 71.667969 L 26.667969 33.332031 L 53.332031 33.332031 Z M 40 71.667969 "/>
<path style=" stroke:none;fill-rule:nonzero;fill:rgb(100%,43.921569%,26.27451%);fill-opacity:1;" d="M 40 71.667969 L 70 33.332031 L 53.332031 33.332031 Z M 40 71.667969 "/>
<path style=" stroke:none;fill-rule:nonzero;fill:rgb(89.803922%,22.352941%,20.784314%);fill-opacity:1;" d="M 61.667969 8.332031 L 70 33.332031 L 53.332031 33.332031 Z M 61.667969 8.332031 "/>
<path style=" stroke:none;fill-rule:nonzero;fill:rgb(100%,65.490196%,14.901961%);fill-opacity:1;" d="M 40 71.667969 L 70 33.332031 L 75 46.667969 Z M 40 71.667969 "/>
<path style=" stroke:none;fill-rule:nonzero;fill:rgb(100%,43.921569%,26.27451%);fill-opacity:1;" d="M 40 71.667969 L 10 33.332031 L 26.667969 33.332031 Z M 40 71.667969 "/>
<path style=" stroke:none;fill-rule:nonzero;fill:rgb(89.803922%,22.352941%,20.784314%);fill-opacity:1;" d="M 18.332031 8.332031 L 10 33.332031 L 26.667969 33.332031 Z M 18.332031 8.332031 "/>
<path style=" stroke:none;fill-rule:nonzero;fill:rgb(100%,65.490196%,14.901961%);fill-opacity:1;" d="M 40 71.667969 L 10 33.332031 L 5 46.667969 Z M 40 71.667969 "/>
</g>
</svg>
